public/icons/pilot.svg

<svg width="36" height="36" viewBox="0 0 36 36" fill="none" xmlns="http://www.w3.org/2000/svg">
<path d="M12.6211 16.457V17.7578C12.3398 17.8984 12.0469 18.0625 11.7422 18.25C11.4609 18.4141 11.1445 18.6133 10.793 18.8477C10.207 21.2383 9.65625 23.0781 9.14062 24.3672C8.64844 25.6328 8.40234 26.793 8.40234 27.8477C8.89453 28.0586 9.39844 28.2461 9.91406 28.4102C10.4297 28.5508 10.957 28.6914 11.4961 28.832L12.1992 26.1602C13.3711 26.4648 14.6953 26.6992 16.1719 26.8633C17.6484 27.0273 18.7969 27.0859 19.6172 27.0391L22.4648 29.2539C23.332 29.1133 24.1992 28.9258 25.0664 28.6914C25.9336 28.457 26.7773 28.1758 27.5977 27.8477C27.5977 26.8164 27.3398 25.6562 26.8242 24.3672C26.332 23.0781 25.793 21.2383 25.207 18.8477C24.8555 18.6133 24.5273 18.4141 24.2227 18.25C23.9414 18.0625 23.6719 17.8984 23.4141 17.7578V16.457H22.0078C21.4922 17.0195 20.8828 17.4648 20.1797 17.793C19.5 18.0977 18.7734 18.25 18 18.25C17.2266 18.25 16.4883 18.0977 15.7852 17.793C15.1055 17.4648 14.5078 17.0195 13.9922 16.457H13.8164H12.6211ZM21.5859 20.0781L24.0117 22.4688L21.5859 24.8594L19.1953 22.4688L21.5859 20.0781ZM22.1836 11.6406C22.1836 12.8125 21.7734 13.8086 20.9531 14.6289C20.1562 15.4492 19.1719 15.8594 18 15.8594C16.8516 15.8594 15.8672 15.4492 15.0469 14.6289C14.2266 13.8086 13.8164 12.8125 13.8164 11.6406C13.8164 10.4922 14.2266 9.50781 15.0469 8.6875C15.8672 7.86719 16.8516 7.45703 18 7.45703C19.1719 7.45703 20.1562 7.86719 20.9531 8.6875C21.7734 9.50781 22.1836 10.4922 22.1836 11.6406Z" fill="#121D0D"/>
</svg>

<?xml version="1.0" encoding="UTF-8"?>
<svg id="Layer_1" xmlns="http://www.w3.org/2000/svg" version="1.1" viewBox="0 0 36 36">
  <!-- Generator: Adobe Illustrator 29.4.0, SVG Export Plug-In . SVG Version: 2.1.0 Build 152)  -->
  <defs>
    <style>
      .st0 {
        fill: #fff;
      }
    </style>
  </defs>
  <path class="st0" d="M12.62,16.46v1.3c-.28.14-.57.3-.88.49-.28.16-.6.36-.95.6-.59,2.39-1.14,4.23-1.65,5.52-.49,1.27-.74,2.43-.74,3.48.49.21,1,.4,1.51.56.52.14,1.04.28,1.58.42l.7-2.67c1.17.3,2.5.54,3.97.7,1.48.16,2.62.22,3.45.18l2.85,2.21c.87-.14,1.73-.33,2.6-.56.87-.23,1.71-.52,2.53-.84,0-1.03-.26-2.19-.77-3.48-.49-1.29-1.03-3.13-1.62-5.52-.35-.23-.68-.43-.98-.6-.28-.19-.55-.35-.81-.49v-1.3h-1.41c-.52.56-1.12,1.01-1.83,1.34-.68.3-1.41.46-2.18.46s-1.51-.15-2.21-.46c-.68-.33-1.28-.77-1.79-1.34h-1.37ZM21.59,20.08l2.43,2.39-2.43,2.39-2.39-2.39,2.39-2.39ZM22.18,11.64c0,1.17-.41,2.17-1.23,2.99-.8.82-1.78,1.23-2.95,1.23s-2.13-.41-2.95-1.23c-.82-.82-1.23-1.82-1.23-2.99s.41-2.13,1.23-2.95c.82-.82,1.8-1.23,2.95-1.23s2.16.41,2.95,1.23c.82.82,1.23,1.8,1.23,2.95Z"/>
</svg>
